X: 1
T:Malcolm Murray's
R:strathspey
C:Dougie MacDonald
O:20th century Cape Breton
D:Fiddle Tunes
B:Cape Breton Fiddler Dougie MacDonald:Fiddle Tunes, 1993
N:Bookings,Mechanicals etc.
N:..... Dougie MacDonald <dougie@cranfordpub.com>
N:More tunes and information <http://www.cranfordpub.com/dougie>
Z:This abc transcription is for personal use only,
Z:provided this notice remains attached.
Z:Used by permission of the composer.
Z:Paul Stewart Cranford <psc@cranfordpub.com>
Q:300
L:1/8
M:C
K:Ddor
c|A<dd>c A>GF>D|E<cG>F E>CC>c|A<dd>c A>GF>D|E<CG>C F>DE>C|!
A<dd>c A>GF>D|E<cG>F E>CC>E|D>FE<G F>AG>B|A>d c/d/e/c/ d>DD||!
c|A<dd<e f>ed>f|e<cG>F E>DE>c|A<dd<e f>ed>e|f<ag>e f>de>c|!
A<dd<e f>ed>f|e<cG>F E>DC>E|D>FE<G F>AG>B|A>d c/d/e/c/ d2 d|]!
